packages/icons/svg/Fill/file.svg

<svg fill="none" height="24" viewBox="0 0 24 24" width="24" xmlns="http://www.w3.org/2000/svg"><path clip-rule="evenodd" d="m14 3.9781 3.742 4.022h-3.028c-.394 0-.714-.381-.714-.85zm5.741 3.3499-4.445-5c-.189-.209-.458-.328-.74-.328h-8.00003c-1.41 0-2.556 1.122-2.556 2.5v15c0 1.378 1.146 2.5 2.556 2.5h10.88803c1.41 0 2.556-1.122 2.556-2.5v-11.5c0-.249-.092-.488-.259-.672z" fill="#6b7280" fill-rule="evenodd"/></svg>

<svg width="24" height="24" viewBox="0 0 24 24" fill="none" xmlns="http://www.w3.org/2000/svg">
<g id="Icon/Fill/file">
<path id="Mask" fill-rule="evenodd" clip-rule="evenodd" d="M14 3.978L17.742 8H14.714C14.32 8 14 7.619 14 7.15V3.978ZM19.741 7.328L15.296 2.328C15.107 2.119 14.838 2 14.556 2H6.556C5.146 2 4 3.122 4 4.5V19.5C4 20.878 5.146 22 6.556 22H17.444C18.854 22 20 20.878 20 19.5V8C20 7.751 19.908 7.512 19.741 7.328Z" fill="#000000"/>
</g>
</svg>
